assets/images/icon-contacts.svg

<?xml version="1.0" encoding="UTF-8"?>
<svg width="26px" height="32px" viewBox="0 0 26 32" version="1.1" xmlns="http://www.w3.org/2000/svg" xmlns:xlink="http://www.w3.org/1999/xlink">
    <!-- Generator: Sketch 47.1 (45422) - http://www.bohemiancoding.com/sketch -->
    <title>contacts 01</title>
    <desc>Created with Sketch.</desc>
    <defs/>
    <g id="main" stroke="none" stroke-width="1" fill="none" fill-rule="evenodd">
        <g id="32px" transform="translate(-35.000000, -96.000000)">
            <g id="icons" transform="translate(32.000000, 32.000000)">
                <g id="contacts-01" transform="translate(3.000000, 64.000000)">
                    <path d="M24.9993054,6 C25.5519738,6 26,6.45127869 26,7.00329963 L26,30.9967004 C26,31.5508075 25.5487213,32 24.9967004,32 L4.00552025,32 C1.7933325,32 0,30.2109725 0,27.9957423 L0,4.0042577 C0,1.79276724 1.79793835,0 4.00281647,0 L24.004543,0 C24.5543187,0 25,0.443864822 25,1 C25,1.55228475 24.5610822,2 23.9969294,2 L4.00086422,2 C2.89581743,2 2,2.88772964 2,4 C2,5.1045695 2.89702623,6 4.00494659,6 L24.9993054,6 Z M3,4 C3,3.44771525 3.43861485,3 3.99874609,3 L23.0012539,3 C23.5528461,3 24,3.44386482 24,4 C24,4.55228475 23.5613852,5 23.0012539,5 L3.99874609,5 C3.44715386,5 3,4.55613518 3,4 Z" id="Combined-Shape" fill="#FFD799"/>
                    <path d="M13,20 C10.790861,20 9,17.9852814 9,15.5 C9,13.0147186 10.790861,11 13,11 C15.209139,11 17,13.0147186 17,15.5 C17,17.9852814 15.209139,20 13,20 Z M5,25 C4.99999999,24 7,21 9,21 C11,21 10,22 13,22 C16,22 15,21 17,21 C19,21 21,24 21,25 C21,26 21,27 20,27 L6,27 C5,27 5.00000001,26 5,25 Z" id="icon-user-16" fill="#FF9300"/>
                </g>
            </g>
        </g>
    </g>
</svg>

<svg width="26" height="32" xmlns="http://www.w3.org/2000/svg"><g fill="none" fill-rule="evenodd"><path d="M25 6c.552 0 1 .451 1 1.003v23.994C26 31.55 25.549 32 24.997 32H4.006A4.002 4.002 0 0 1 0 27.996V4.004A4.007 4.007 0 0 1 4.003 0h20.002c.55 0 .995.444.995 1 0 .552-.439 1-1.003 1H4C2.896 2 2 2.888 2 4c0 1.105.897 2 2.005 2h20.994zM3 4c0-.552.439-1 .999-1H23c.552 0 .999.444.999 1 0 .552-.439 1-.999 1H4A.997.997 0 0 1 3 4z" fill="#FFD799"/><path d="M13 20c-2.21 0-4-2.015-4-4.5s1.79-4.5 4-4.5 4 2.015 4 4.5-1.79 4.5-4 4.5zm-8 5c0-1 2-4 4-4s1 1 4 1 2-1 4-1 4 3 4 4 0 2-1 2H6c-1 0-1-1-1-2z" fill="#FF9300"/></g></svg>
